packages/foundations/assets/icons/functional/images/technology/augmented_reality_16.svg

<svg width="16" height="16" viewBox="0 0 16 16" fill="none" xmlns="http://www.w3.org/2000/svg">
<g clip-path="url(#clip0_187_558)">
<path fill-rule="evenodd" clip-rule="evenodd" d="M6.93666 11.9088L8 12.4226L9.06169 11.9096C9.45107 11.7273 9.84126 11.9139 9.99655 12.2352C10.1518 12.5565 10.0424 12.9692 9.6764 13.1693L8.30462 13.8305C8.13968 13.9102 7.93408 13.9347 7.69538 13.8305L6.32743 13.1693C5.97935 13.001 5.83357 12.5825 6.0018 12.2344C6.14416 11.9399 6.52514 11.7273 6.93666 11.9088ZM3.2 8.50022C3.55686 8.50022 3.9 8.79038 3.9 9.20022V10.441L4.7954 10.8739C5.16356 11.0495 5.27632 11.4874 5.12103 11.8087C4.96573 12.13 4.57347 12.314 4.18616 12.1343L2.89538 11.5105C2.68048 11.4066 2.5 11.1737 2.5 10.8802V9.20022C2.5 8.81362 2.8134 8.50022 3.2 8.50022ZM12.8 8.50022C13.1569 8.50022 13.5 8.7854 13.4945 9.20022L13.5 10.8802C13.5 11.1189 13.3786 11.3389 13.1819 11.4669L11.8367 12.1233C11.4886 12.2915 11.07 12.1458 10.9018 11.7977C10.7465 11.4764 10.8633 11.0432 11.2274 10.8628L12.0992 10.441L12.1 9.20022C12.1 8.7854 12.4431 8.50022 12.8 8.50022ZM9.94992 5.91528C10.764 5.91528 11.171 6.27329 11.171 6.98931C11.171 7.28238 11.0989 7.50718 10.9548 7.6637C10.8479 7.77693 10.6885 7.86519 10.4765 7.92846C10.6173 8.0034 10.7343 8.13495 10.8276 8.32311C11.0748 8.83536 11.2604 9.21846 11.3846 9.47242C11.4575 9.62144 11.3353 9.79429 11.0565 9.79429C10.9183 9.79429 10.6761 9.75258 10.5868 9.57388L10.072 8.49545C10.0025 8.34892 9.93465 8.24984 9.86851 8.19822C9.81085 8.15326 9.71842 8.13078 9.59123 8.13078H9.3301V9.38853C9.3301 9.61262 9.14843 9.79429 8.92434 9.79429C8.70025 9.79429 8.51859 9.61262 8.51859 9.38853V6.23853C8.51859 6.06 8.66332 5.91528 8.84184 5.91528H9.94992ZM6.33131 5.91528C6.50118 5.91528 6.65498 6.01339 6.71856 6.18195L7.9529 9.45488C8.02198 9.63808 7.9892 9.79429 7.66247 9.79429C7.37205 9.79429 7.26379 9.72127 7.19052 9.53974L6.96061 8.96999H5.52056L5.32692 9.49125C5.24543 9.71067 5.13332 9.79429 4.84286 9.79429C4.55244 9.79429 4.48239 9.64982 4.55244 9.467L5.81098 6.18195C5.86583 6.0388 5.99202 5.91528 6.14982 5.91528H6.33131ZM6.26658 6.95138L5.75226 8.39146H6.78086L6.26658 6.95138ZM9.86343 6.52473C10.1178 6.52473 10.273 6.59716 10.329 6.74203C10.3561 6.8103 10.3697 6.91854 10.3697 7.06674C10.3697 7.24824 10.3366 7.3748 10.2704 7.4464C10.1907 7.53465 10.0534 7.57878 9.85834 7.57878H9.32834V6.52473H9.86343ZM5.0974 4.17895C5.25052 4.5013 5.12103 4.95219 4.76545 5.11159L3.9 5.52182V6.80022C3.9 7.21393 3.55686 7.50022 3.2 7.50022C2.84314 7.50022 2.5056 7.21393 2.5 6.80022V5.08022C2.5 4.84001 2.62291 4.61886 2.82166 4.49125L4.16477 3.847C4.51397 3.68113 4.93153 3.82975 5.0974 4.17895ZM11.7584 3.81299L13.1003 4.44793C13.3173 4.55099 13.4643 4.7569 13.4943 4.99118L13.5 6.80022C13.5 7.18682 13.1866 7.50022 12.8 7.50022C12.4431 7.50022 12.1486 7.23318 12.1055 6.88803L12.0992 5.52182L11.1947 5.09264C10.8723 4.93953 10.6839 4.54492 10.857 4.17895C11.0302 3.81299 11.3986 3.66623 11.7584 3.81299ZM8.20305 2.13031L9.62026 2.79489C9.96947 2.96076 10.1181 3.37832 9.95222 3.72752C9.7991 4.04987 9.43154 4.2013 9.10124 4.09223L7.9992 3.57462L6.95076 4.07357C6.62841 4.22668 6.23097 4.14144 6.03311 3.77913C5.83524 3.41682 6.0018 2.96832 6.36282 2.79489L7.69966 2.16793C7.85804 2.0927 8.03761 2.08016 8.20305 2.13031Z" fill="#1A1C1F"/>
</g>
<defs>
<clipPath id="clip0_187_558">
<rect width="16" height="16" fill="white"/>
</clipPath>
</defs>
</svg>

<svg xmlns="http://www.w3.org/2000/svg" width="16" height="16" fill="none"><g clip-path="url(#a)"><path fill="#1A1C1F" fill-rule="evenodd" d="M6.937 11.909 8 12.423l1.062-.513c.39-.183.78.004.935.325a.71.71 0 0 1-.32.934l-1.372.662a.7.7 0 0 1-.61 0l-1.368-.662a.7.7 0 0 1-.325-.935.706.706 0 0 1 .935-.325M3.2 8.5c.357 0 .7.29.7.7v1.241l.895.433c.369.175.481.613.326.935a.697.697 0 0 1-.935.325l-1.29-.623a.7.7 0 0 1-.396-.63V9.2a.7.7 0 0 1 .7-.7m9.6 0c.357 0 .7.285.694.7l.006 1.68a.7.7 0 0 1-.318.587l-1.345.656a.7.7 0 0 1-.935-.325.71.71 0 0 1 .325-.935l.872-.422.001-1.24a.7.7 0 0 1 .7-.7M9.95 5.915q1.221 0 1.221 1.074 0 .44-.216.675-.16.17-.479.264.211.113.352.395.37.768.557 1.15c.072.148-.05.321-.328.321-.139 0-.38-.041-.47-.22l-.515-1.079q-.105-.219-.203-.297-.087-.067-.278-.067h-.26v1.258a.406.406 0 0 1-.812 0v-3.15c0-.179.144-.324.323-.324zm-3.619 0c.17 0 .324.098.388.267l1.234 3.273c.069.183.036.34-.29.34-.291 0-.4-.074-.472-.255l-.23-.57H5.52l-.194.521c-.082.22-.194.303-.484.303s-.36-.144-.29-.327L5.81 6.182c.055-.143.181-.267.339-.267zm-.064 1.036-.515 1.44h1.029zm3.596-.426q.382 0 .466.217.04.103.04.325 0 .272-.099.38-.12.132-.412.132h-.53V6.525zM5.097 4.179c.154.322.024.773-.332.933l-.865.41V6.8c0 .414-.343.7-.7.7a.705.705 0 0 1-.7-.7V5.08a.7.7 0 0 1 .322-.589l1.343-.644a.7.7 0 0 1 .932.332m6.661-.366 1.342.635a.7.7 0 0 1 .394.543l.006 1.81a.7.7 0 0 1-1.395.087L12.1 5.522l-.904-.43a.69.69 0 0 1-.338-.913c.173-.366.542-.513.901-.366M8.203 2.13l1.417.665a.7.7 0 0 1-.519 1.297L8 3.575l-1.048.499a.684.684 0 0 1-.918-.295.72.72 0 0 1 .33-.984L7.7 2.168a.7.7 0 0 1 .503-.038" clip-rule="evenodd"/></g><defs><clipPath id="a"><path fill="#fff" d="M0 0h16v16H0z"/></clipPath></defs></svg>
